;FLAVOR:Marlin
;TIME:982
;Filament used: 1.50501m
;Layer height: 0.4
;Generated with Cura_SteamEngine 3.2.1
M190 S60
M104 S200
M109 S200
M82 ;absolute extrusion mode
; -- START GCODE --
G21                     ;set units to millimetres
G90                     ;set to absolute positioning
M106 S0                 ;set fan speed to zero (turned off)
G28 X0 Y0               ;move to the X/Y origin (Home)
G28 Z0                  ;move to the Z origin (Home)
G1 Z15.0 F1200          ;move Z to position 15.0 mm
G92 E0                  ;zero the extruded length
G1 E20 F200             ;extrude 20mm of feed stock
G92 E0                  ;zero the extruded length again
G1 F7200                ;set feedrate to 120 mm/s
; -- end of START GCODE --
;LAYER_COUNT:45
;LAYER:0
M107
G0 F3600 X83.795 Y92.895 Z0.2
;TYPE:SKIRT
G1 F1200 X84.224 Y92.526 E0.03764
G1 X84.58 Y92.288 E0.06613
G1 X85.02 Y92.028 E0.10012
G1 X85.526 Y91.776 E0.13773
G1 X86.062 Y91.597 E0.17532
G1 X86.618 Y91.496 E0.21291
G1 X86.998 Y91.472 E0.23824
G1 X89.931 Y91.43 E0.43336
G1 X90.41 Y91.452 E0.46526
G1 X95.834 Y92.027 E0.82808
G1 X101.245 Y92.294 E1.18846
G1 X106.677 Y92.255 E1.54981
G1 X112.134 Y91.906 E1.91355
G1 X116.339 Y91.455 E2.19488
G1 X116.825 Y91.432 E2.22724
G1 X119.166 Y91.467 E2.38298
G1 X119.729 Y91.516 E2.42057
G1 X120.28 Y91.643 E2.45819
G1 X120.631 Y91.769 E2.483
G1 X121.111 Y91.967 E2.51754
G1 X121.617 Y92.219 E2.55514
G1 X122.083 Y92.54 E2.59278
G1 X122.395 Y92.818 E2.62058
G1 X122.844 Y93.261 E2.66253
G1 X123.166 Y93.619 E2.69456
G1 X125.508 Y96.566 E2.94497
G1 X129.13 Y100.715 E3.31133
G1 X131.493 Y103.258 E3.54225
G1 X131.847 Y103.698 E3.57981
G1 X132.136 Y104.184 E3.61743
G1 X132.354 Y104.706 E3.65506
G1 X132.486 Y105.203 E3.68926
G1 X132.592 Y105.738 E3.72554
G1 X132.662 Y106.299 E3.76315
G1 X132.653 Y106.864 E3.80074
G1 X132.588 Y107.311 E3.83079
G1 X132.355 Y108.459 E3.90871
G1 X132.204 Y109.003 E3.94626
G1 X132.008 Y109.462 E3.97946
G1 X131.353 Y110.763 E4.07636
G1 X131.063 Y111.248 E4.11395
G1 X130.8 Y111.587 E4.14249
G1 X130.121 Y112.369 E4.21138
G1 X129.504 Y112.944 E4.26748
G1 X128.655 Y113.582 E4.33813
G1 X128.064 Y113.95 E4.38444
G1 X127.452 Y114.261 E4.4301
G1 X126.862 Y114.504 E4.47255
G1 X126.011 Y114.777 E4.532
G1 X125.298 Y114.936 E4.58059
G1 X119.102 Y115.73 E4.99612
G1 X113.782 Y116.706 E5.35592
G1 X107.198 Y118.258 E5.80589
G1 X106.778 Y118.334 E5.83428
G1 X105.559 Y118.487 E5.91601
G1 X105.18 Y118.516 E5.94129
G1 X103.561 Y118.564 E6.04903
G1 X103.072 Y118.549 E6.08158
G1 X101.059 Y118.362 E6.21606
G1 X100.576 Y118.287 E6.24857
G1 X98.991 Y117.941 E6.35649
G1 X98.675 Y117.859 E6.37821
G1 X97.814 Y117.596 E6.43809
G1 X97.457 Y117.468 E6.46332
G1 X95.7 Y116.743 E6.58976
G1 X95.246 Y116.52 E6.6234
G1 X93.626 Y115.597 E6.74743
G1 X93.209 Y115.325 E6.78055
G1 X91.675 Y114.177 E6.908
G1 X91.287 Y113.845 E6.94197
G1 X89.947 Y112.545 E7.06616
G1 X89.618 Y112.185 E7.0986
G1 X88.489 Y110.785 E7.21824
G1 X88.205 Y110.385 E7.25087
G1 X87.216 Y108.793 E7.37555
G1 X87.027 Y108.453 E7.40142
G1 X86.446 Y107.276 E7.48874
G1 X86.431 Y107.244 E7.49109
G1 X84.325 Y102.881 E7.81336
G1 X84.151 Y102.462 E7.84354
G1 X82.6 Y98.027 E8.15607
G1 X82.452 Y97.482 E8.19364
G1 X82.377 Y96.815 E8.23829
G1 X82.363 Y96.297 E8.27276
G1 X82.388 Y95.732 E8.31038
G1 X82.492 Y95.177 E8.34794
G1 X82.674 Y94.641 E8.3856
G1 X82.862 Y94.252 E8.41434
G1 X83.115 Y93.795 E8.44908
G1 X83.424 Y93.321 E8.48672
G1 X83.795 Y92.895 E8.5243
G0 F3600 X84.117 Y93.14
G1 F1200 X84.53 Y92.798 E8.55997
G1 X84.784 Y92.633 E8.58012
G1 X85.224 Y92.373 E8.61411
G1 X85.704 Y92.135 E8.64975
G1 X86.215 Y91.971 E8.68545
G1 X87.003 Y91.872 E8.73828
G1 X89.936 Y91.83 E8.93341
G1 X90.367 Y91.85 E8.96211
G1 X95.788 Y92.425 E9.32474
G1 X101.246 Y92.694 E9.68825
G1 X106.687 Y92.655 E10.05019
G1 X112.178 Y92.304 E10.4162
G1 X116.381 Y91.853 E10.69739
G1 X116.819 Y91.832 E10.72656
G1 X119.16 Y91.867 E10.8823
G1 X119.694 Y91.915 E10.91797
G1 X120.215 Y92.042 E10.95364
G1 X120.479 Y92.139 E10.97235
G1 X120.959 Y92.337 E11.00689
G1 X121.438 Y92.578 E11.04256
G1 X121.876 Y92.887 E11.07821
G1 X122.114 Y93.102 E11.09955
G1 X122.563 Y93.545 E11.14151
G1 X122.853 Y93.868 E11.17038
G1 X125.198 Y96.817 E11.42101
G1 X128.835 Y100.984 E11.78893
G1 X131.2 Y103.53 E12.02009
G1 X131.534 Y103.949 E12.05573
G1 X131.803 Y104.413 E12.09141
G1 X132 Y104.912 E12.12709
G1 X132.093 Y105.28 E12.15234
G1 X132.199 Y105.815 E12.18862
G1 X132.264 Y106.348 E12.22434
G1 X132.249 Y106.884 E12.26001
G1 X132.196 Y107.231 E12.28336
G1 X131.963 Y108.379 E12.36128
G1 X131.818 Y108.895 E12.39694
G1 X131.65 Y109.282 E12.425
G1 X130.995 Y110.583 E12.52189
G1 X130.719 Y111.043 E12.55758
G1 X130.498 Y111.324 E12.58136
G1 X129.819 Y112.106 E12.65025
G1 X129.264 Y112.624 E12.70075
G1 X128.415 Y113.262 E12.7714
G1 X127.883 Y113.593 E12.81307
G1 X127.271 Y113.904 E12.85874
G1 X126.74 Y114.123 E12.89695
G1 X125.889 Y114.396 E12.9564
G1 X125.247 Y114.539 E13.00015
G1 X119.05 Y115.333 E13.41575
G1 X113.7 Y116.314 E13.77756
G1 X107.106 Y117.869 E14.22823
G1 X106.728 Y117.937 E14.25378
G1 X105.509 Y118.09 E14.3355
G1 X105.168 Y118.116 E14.35825
G1 X103.549 Y118.164 E14.466
G1 X103.109 Y118.151 E14.49528
G1 X101.096 Y117.964 E14.62976
G1 X100.661 Y117.896 E14.65905
G1 X99.076 Y117.55 E14.76696
G1 X98.792 Y117.476 E14.78649
G1 X97.931 Y117.213 E14.84637
G1 X97.61 Y117.098 E14.86906
G1 X95.853 Y116.373 E14.99549
G1 X95.444 Y116.173 E15.02578
G1 X93.824 Y115.25 E15.1498
G1 X93.449 Y115.004 E15.17964
G1 X91.915 Y113.856 E15.30709
G1 X91.565 Y113.558 E15.33767
G1 X90.225 Y112.258 E15.46186
G1 X89.93 Y111.934 E15.49101
G1 X88.801 Y110.534 E15.61064
G1 X88.545 Y110.174 E15.64003
G1 X87.556 Y108.582 E15.7647
G1 X87.386 Y108.275 E15.78804
G1 X86.805 Y107.098 E15.87536
G1 X86.791 Y107.07 E15.87744
G1 X84.685 Y102.707 E16.19971
G1 X84.529 Y102.33 E16.22685
G1 X82.978 Y97.895 E16.53939
G1 X82.839 Y97.377 E16.57506
G1 X82.777 Y96.804 E16.6134
G1 X82.763 Y96.286 E16.64787
G1 X82.789 Y95.751 E16.6835
G1 X82.894 Y95.225 E16.71918
G1 X83.075 Y94.72 E16.75487
G1 X83.212 Y94.445 E16.77531
G1 X83.465 Y93.988 E16.81005
G1 X83.759 Y93.54 E16.8457
G1 X84.117 Y93.14 E16.88141
G0 F3600 X84.436 Y93.388
G1 F1200 X84.987 Y92.977 E16.92713
G1 X85.427 Y92.717 E16.96113
G1 X85.881 Y92.495 E16.99475
G1 X86.365 Y92.347 E17.02842
G1 X87.009 Y92.272 E17.07154
G1 X89.942 Y92.23 E17.26667
G1 X90.325 Y92.248 E17.29217
G1 X95.762 Y92.824 E17.65587
G1 X101.229 Y93.094 E18.01998
G1 X106.716 Y93.055 E18.38498
G1 X112.177 Y92.705 E18.749
G1 X116.424 Y92.25 E19.03312
G1 X116.813 Y92.232 E19.05903
G1 X119.154 Y92.267 E19.21477
G1 X119.657 Y92.315 E19.24838
G1 X120.326 Y92.509 E19.29472
G1 X120.806 Y92.707 E19.32926
G1 X121.257 Y92.936 E19.3629
G1 X121.833 Y93.387 E19.41157
G1 X122.282 Y93.83 E19.45352
G1 X122.54 Y94.117 E19.4792
G1 X124.896 Y97.08 E19.73101
G1 X128.525 Y101.238 E20.09813
G1 X130.907 Y103.802 E20.33093
G1 X131.22 Y104.199 E20.36456
G1 X131.468 Y104.639 E20.39816
G1 X131.701 Y105.358 E20.44844
G1 X131.807 Y105.893 E20.48472
G1 X131.866 Y106.395 E20.51834
G1 X131.845 Y106.9 E20.55196
G1 X131.804 Y107.151 E20.56888
G1 X131.571 Y108.299 E20.6468
G1 X131.432 Y108.785 E20.68043
G1 X131.293 Y109.102 E20.70345
G1 X130.638 Y110.403 E20.80034
G1 X130.376 Y110.835 E20.83395
G1 X130.196 Y111.062 E20.85322
G1 X129.517 Y111.844 E20.92212
G1 X129.023 Y112.304 E20.96702
G1 X128.174 Y112.942 E21.03766
G1 X127.702 Y113.237 E21.07469
G1 X127.09 Y113.548 E21.12035
G1 X126.617 Y113.742 E21.15436
G1 X125.766 Y114.015 E21.21381
G1 X125.196 Y114.142 E21.25266
G1 X119.002 Y114.936 E21.66805
G1 X113.615 Y115.924 E22.03238
G1 X107.014 Y117.48 E22.48351
G1 X106.679 Y117.54 E22.50615
G1 X105.46 Y117.693 E22.58787
G1 X105.156 Y117.717 E22.60816
G1 X103.537 Y117.765 E22.7159
G1 X103.146 Y117.752 E22.74193
G1 X101.133 Y117.565 E22.87641
G1 X100.747 Y117.505 E22.90239
G1 X99.162 Y117.159 E23.01031
G1 X98.909 Y117.093 E23.0277
G1 X98.048 Y116.83 E23.08759
G1 X97.762 Y116.728 E23.10779
G1 X96.005 Y116.003 E23.23422
G1 X95.642 Y115.825 E23.26112
G1 X94.022 Y114.902 E23.38514
G1 X93.689 Y114.684 E23.41162
G1 X92.155 Y113.536 E23.53907
G1 X91.844 Y113.271 E23.56625
G1 X90.504 Y111.971 E23.69044
G1 X90.241 Y111.683 E23.71639
G1 X89.112 Y110.283 E23.83603
G1 X88.885 Y109.963 E23.86212
G1 X87.896 Y108.371 E23.9868
G1 X87.745 Y108.098 E24.00755
G1 X87.164 Y106.921 E24.09486
G1 X87.151 Y106.896 E24.09674
G1 X85.045 Y102.533 E24.41901
G1 X84.906 Y102.198 E24.44313
G1 X83.355 Y97.763 E24.75567
G1 X83.227 Y97.274 E24.7893
G1 X83.177 Y96.793 E24.82146
G1 X83.163 Y96.275 E24.85593
G1 X83.189 Y95.771 E24.88951
G1 X83.295 Y95.276 E24.92318
G1 X83.562 Y94.639 E24.96912
G1 X83.815 Y94.182 E25.00387
G1 X84.094 Y93.761 E25.03747
G1 X84.436 Y93.388 E25.07113
G1 F1500 E18.57113
G0 F3600 X89.971 Y94.684
G0 X108.857 Y99.981
G0 X109.382 Y101.154
G0 X115.743 Y101.545
G0 X115.842 Y101.537
;TYPE:WALL-INNER
G1 F1500 E25.07113
G1 F1200 X116.036 Y101.673 E25.08689
G1 X121.474 Y105.482 E25.52854
G1 X127.678 Y106.024 E25.9428
G1 X127.815 Y106.054 E25.95213
G1 X127.906 Y106.101 E25.95895
G1 X127.985 Y106.173 E25.96606
G1 X128.038 Y106.255 E25.97255
G1 X128.071 Y106.358 E25.97975
G1 X128.077 Y106.484 E25.98814
G1 X128.019 Y106.912 E26.01687
G1 X127.906 Y107.375 E26.04857
G1 X127.75 Y107.805 E26.079
G1 X127.547 Y108.223 E26.10991
G1 X127.298 Y108.623 E26.14125
G1 X127.012 Y108.988 E26.1721
G1 X126.691 Y109.321 E26.20286
G1 X126.335 Y109.619 E26.23375
G1 X125.95 Y109.877 E26.26458
G1 X125.543 Y110.091 E26.29516
G1 X125.102 Y110.266 E26.32673
G1 X124.647 Y110.394 E26.35817
G1 X124.207 Y110.468 E26.38785
G1 X123.74 Y110.496 E26.41897
G1 X123.271 Y110.476 E26.45019
G1 X122.808 Y110.407 E26.48133
G1 X122.356 Y110.289 E26.51241
G1 X121.93 Y110.128 E26.5427
G1 X121.503 Y109.912 E26.57453
G1 X121.12 Y109.666 E26.60481
G1 X120.758 Y109.374 E26.63575
G1 X120.431 Y109.048 E26.66647
G1 X120.141 Y108.689 E26.69716
G1 X119.881 Y108.289 E26.7289
G1 X119.673 Y107.878 E26.75954
G1 X119.487 Y107.389 E26.79434
G1 X119.31 Y107.031 E26.82091
G1 X119.001 Y106.693 E26.85137
G1 X118.609 Y106.456 E26.88184
G1 X118.164 Y106.339 E26.91245
G1 X117.748 Y106.353 E26.94014
G1 X117.076 Y106.471 E26.98553
G1 X116.69 Y106.596 E27.01252
G1 X116.319 Y106.847 E27.04231
G1 X116.065 Y107.151 E27.06866
G1 X115.538 Y107.943 E27.13194
G1 X115.008 Y108.639 E27.19014
G1 X114.419 Y109.322 E27.25013
G1 X113.785 Y109.968 E27.31034
G1 X113.112 Y110.575 E27.37063
G1 X112.413 Y111.131 E27.43004
G1 X111.691 Y111.635 E27.48861
G1 X110.908 Y112.111 E27.54957
G1 X110.123 Y112.524 E27.60857
G1 X109.301 Y112.895 E27.66856
G1 X108.47 Y113.208 E27.72763
G1 X107.621 Y113.468 E27.7867
G1 X106.692 Y113.689 E27.85022
G1 X105.828 Y113.839 E27.90855
G1 X104.95 Y113.934 E27.9673
G1 X104.056 Y113.979 E28.02684
G1 X103.19 Y113.969 E28.08445
G1 X102.254 Y113.896 E28.14691
G1 X101.399 Y113.777 E28.20433
G1 X100.505 Y113.596 E28.26501
G1 X99.683 Y113.376 E28.32161
G1 X98.805 Y113.082 E28.3832
G1 X97.962 Y112.739 E28.44374
G1 X97.163 Y112.354 E28.50274
G1 X96.383 Y111.916 E28.56225
G1 X95.633 Y111.432 E28.62162
G1 X94.893 Y110.885 E28.68284
G1 X94.222 Y110.321 E28.74115
G1 X93.572 Y109.704 E28.80076
G1 X92.962 Y109.047 E28.8604
G1 X92.394 Y108.352 E28.92011
G1 X91.871 Y107.627 E28.97957
G1 X91.39 Y106.862 E29.03968
G1 X90.96 Y106.073 E29.09946
G1 X90.585 Y105.269 E29.15847
G1 X90.256 Y104.435 E29.21811
G1 X89.979 Y103.575 E29.27821
G1 X89.711 Y102.526 E29.35023
G1 X89.205 Y102.05 E29.39644
G1 X88.902 Y101.684 E29.42805
G1 X88.647 Y101.283 E29.45966
G1 X88.437 Y100.84 E29.49227
G1 X88.284 Y100.376 E29.52477
G1 X88.195 Y99.923 E29.55548
G1 X88.16 Y99.43 E29.58836
G1 X88.198 Y98.739 E29.63439
G1 X86.997 Y96.66 E29.79411
G1 X86.939 Y96.522 E29.80407
G1 X86.926 Y96.421 E29.81084
G1 X86.94 Y96.316 E29.81789
G1 X86.978 Y96.226 E29.82438
G1 X87.042 Y96.142 E29.83141
G1 X87.124 Y96.079 E29.83829
G1 X87.221 Y96.039 E29.84527
G1 X87.36 Y96.021 E29.85459
G1 X90.026 Y96.021 E30.03193
G1 X90.198 Y96.048 E30.04352
G1 X90.303 Y96.101 E30.05134
G1 X90.421 Y96.217 E30.06235
G1 X91.021 Y96.976 E30.12671
G1 X91.697 Y97.727 E30.19392
G1 X92.42 Y98.432 E30.26109
G1 X93.187 Y99.089 E30.32827
G1 X93.994 Y99.696 E30.39545
G1 X94.839 Y100.248 E30.46259
G1 X95.718 Y100.745 E30.52976
G1 X96.628 Y101.184 E30.59697
G1 X97.565 Y101.563 E30.6642
G1 X98.584 Y101.896 E30.73551
G1 X99.529 Y102.141 E30.80045
G1 X100.523 Y102.331 E30.86777
G1 X101.549 Y102.458 E30.93654
G1 X102.533 Y102.515 E31.00211
G1 X103.518 Y102.511 E31.06763
G1 X104.501 Y102.444 E31.13317
G1 X105.534 Y102.306 E31.2025
G1 X106.485 Y102.115 E31.26702
G1 X107.484 Y101.847 E31.33583
G1 X108.442 Y101.522 E31.40312
G1 X109.374 Y101.136 E31.47022
G1 X110.28 Y100.691 E31.53737
G1 X111.156 Y100.187 E31.6046
G1 X111.997 Y99.629 E31.67173
G1 X112.8 Y99.016 E31.73893
G1 X113.562 Y98.354 E31.80608
G1 X114.28 Y97.644 E31.87325
G1 X114.927 Y96.914 E31.93814
G1 X115.195 Y96.635 E31.96387
G1 X115.473 Y96.42 E31.98725
G1 X115.777 Y96.25 E32.01042
G1 X116.108 Y96.123 E32.034
G1 X116.444 Y96.048 E32.0569
G1 X116.812 Y96.021 E32.08145
G1 X118.76 Y96.021 E32.21103
G1 X118.955 Y96.04 E32.22406
G1 X119.127 Y96.091 E32.236
G1 X119.287 Y96.175 E32.24802
G1 X119.425 Y96.291 E32.26001
G1 X119.547 Y96.441 E32.27287
G1 X119.629 Y96.61 E32.28537
G1 X119.679 Y96.812 E32.29921
G1 X119.686 Y96.94 E32.30774
G1 X119.676 Y97.054 E32.31535
G1 X119.542 Y97.546 E32.34927
G1 X119.316 Y97.987 E32.38223
G1 X118.98 Y98.401 E32.4177
G1 X116.01 Y101.369 E32.69701
G1 X116.009 Y101.37 E32.6971
G1 X115.842 Y101.537 E32.70679
G0 F3600 X116.462 Y101.483
;TYPE:WALL-OUTER
G1 F1200 X116.656 Y101.619 E32.72255
G1 X121.616 Y105.093 E33.12537
G1 X127.739 Y105.628 E33.53422
G1 X127.955 Y105.676 E33.54894
G1 X128.136 Y105.769 E33.56248
G1 X128.293 Y105.913 E33.57665
G1 X128.403 Y106.083 E33.59012
G1 X128.467 Y106.285 E33.60421
G1 X128.478 Y106.502 E33.61867
G1 X128.411 Y106.994 E33.6517
G1 X128.291 Y107.486 E33.68538
G1 X128.119 Y107.961 E33.71899
G1 X127.898 Y108.417 E33.7527
G1 X127.627 Y108.851 E33.78673
G1 X127.315 Y109.25 E33.82042
G1 X126.958 Y109.619 E33.85458
G1 X126.576 Y109.939 E33.88773
G1 X126.155 Y110.221 E33.92143
G1 X125.706 Y110.457 E33.95518
G1 X125.235 Y110.644 E33.98889
G1 X124.738 Y110.784 E34.02323
G1 X124.25 Y110.866 E34.05615
G1 X123.737 Y110.897 E34.09034
G1 X123.232 Y110.875 E34.12396
G1 X122.731 Y110.8 E34.15766
G1 X122.237 Y110.671 E34.19162
G1 X121.768 Y110.494 E34.22497
G1 X121.307 Y110.261 E34.25933
G1 X120.884 Y109.989 E34.29278
G1 X120.492 Y109.673 E34.32628
G1 X120.129 Y109.311 E34.36038
G1 X119.815 Y108.923 E34.39358
G1 X119.535 Y108.491 E34.42782
G1 X119.307 Y108.042 E34.46132
G1 X119.12 Y107.549 E34.4964
G1 X118.977 Y107.259 E34.51791
G1 X118.745 Y107.006 E34.54074
G1 X118.451 Y106.828 E34.5636
G1 X118.119 Y106.741 E34.58643
G1 X117.789 Y106.752 E34.6084
G1 X117.173 Y106.86 E34.65
G1 X116.867 Y106.959 E34.67139
G1 X116.59 Y107.147 E34.69366
G1 X116.386 Y107.391 E34.71482
G1 X115.869 Y108.167 E34.77684
G1 X115.312 Y108.899 E34.83803
G1 X114.71 Y109.597 E34.89935
G1 X114.065 Y110.255 E34.96064
G1 X113.372 Y110.88 E35.02271
G1 X112.651 Y111.453 E35.08398
G1 X111.906 Y111.973 E35.14441
G1 X111.111 Y112.456 E35.20629
G1 X110.295 Y112.886 E35.26765
G1 X109.46 Y113.262 E35.32856
G1 X108.602 Y113.585 E35.38955
G1 X107.723 Y113.855 E35.45072
G1 X106.771 Y114.081 E35.5158
G1 X105.876 Y114.236 E35.57623
G1 X104.979 Y114.334 E35.63625
G1 X104.072 Y114.379 E35.69666
G1 X103.17 Y114.369 E35.75666
G1 X102.217 Y114.295 E35.82025
G1 X101.33 Y114.171 E35.87982
G1 X100.415 Y113.986 E35.94192
G1 X99.569 Y113.759 E36.00019
G1 X98.654 Y113.453 E36.06437
G1 X97.811 Y113.11 E36.12491
G1 X96.972 Y112.706 E36.18685
G1 X96.18 Y112.261 E36.24728
G1 X95.4 Y111.757 E36.30906
G1 X94.655 Y111.207 E36.37066
G1 X93.955 Y110.619 E36.43147
G1 X93.286 Y109.984 E36.49283
G1 X92.657 Y109.306 E36.55435
G1 X92.073 Y108.592 E36.61571
G1 X91.54 Y107.852 E36.67637
G1 X91.051 Y107.075 E36.73744
G1 X90.604 Y106.255 E36.79957
G1 X90.214 Y105.42 E36.86087
G1 X89.877 Y104.564 E36.92207
G1 X89.598 Y103.698 E36.98259
