;FLAVOR:Marlin
;TIME:4839
;Filament used: 1.27463m
;Layer height: 0.06
;Generated with Cura_SteamEngine 3.2.1
M104 S200
M109 S200
M82 ;absolute extrusion mode
; -- START GCODE --
G21                     ;set units to millimetres
G90                     ;set to absolute positioning
M106 S0                 ;set fan speed to zero (turned off)
G28 X0 Y0               ;move to the X/Y origin (Home)
G28 Z0                  ;move to the Z origin (Home)
G1 Z15.0 F1200          ;move Z to position 15.0 mm
G92 E0                  ;zero the extruded length
G1 E20 F200             ;extrude 20mm of feed stock
G92 E0                  ;zero the extruded length again
G1 F7200                ;set feedrate to 120 mm/s
; -- end of START GCODE --
;LAYER_COUNT:332
;LAYER:0
M107
G0 F3600 X96.123 Y89.965 Z0.2
;TYPE:SKIRT
G1 F1200 X96.582 Y89.59 E0.01971
G1 X97.087 Y89.279 E0.03944
G1 X97.42 Y89.122 E0.05168
G1 X97.803 Y88.96 E0.06552
G1 X98.363 Y88.766 E0.08523
G1 X98.945 Y88.649 E0.10497
G1 X99.54 Y88.612 E0.1248
G1 X107.093 Y88.652 E0.37602
G1 X107.685 Y88.695 E0.39576
G1 X108.265 Y88.817 E0.41547
G1 X108.823 Y89.016 E0.43518
G1 X109.496 Y89.381 E0.46064
G1 X109.95 Y89.681 E0.47874
G1 X110.421 Y90.041 E0.49846
G1 X110.84 Y90.46 E0.51817
G1 X111.22 Y90.964 E0.53916
G1 X111.399 Y91.241 E0.55013
G1 X111.686 Y91.759 E0.56983
G1 X111.901 Y92.312 E0.58956
G1 X111.996 Y92.664 E0.60169
G1 X112.096 Y93.109 E0.61686
G1 X112.187 Y93.695 E0.63658
G1 X112.203 Y94.074 E0.6492
G1 X112.202 Y104.079 E0.98196
G1 X112.144 Y104.792 E1.00576
G1 X112.09 Y105.121 E1.01685
G1 X111.955 Y105.698 E1.03656
G1 X111.743 Y106.252 E1.05628
G1 X111.541 Y106.638 E1.07077
G1 X111.3 Y107.048 E1.08659
G1 X110.966 Y107.537 E1.10629
G1 X110.569 Y107.978 E1.12602
G1 X109.903 Y108.508 E1.15433
G1 X109.478 Y108.784 E1.17119
G1 X108.96 Y109.073 E1.19092
G1 X108.408 Y109.289 E1.21063
G1 X107.959 Y109.406 E1.22606
G1 X107.659 Y109.467 E1.23625
G1 X107.071 Y109.545 E1.25598
G1 X106.708 Y109.554 E1.26805
G1 X103.278 Y109.496 E1.38215
G1 X99.779 Y109.552 E1.49854
G1 X99.187 Y109.522 E1.51826
G1 X98.778 Y109.453 E1.53205
G1 X98.339 Y109.358 E1.54699
G1 X97.77 Y109.194 E1.56669
G1 X97.227 Y108.955 E1.58642
G1 X96.938 Y108.789 E1.59751
G1 X96.73 Y108.659 E1.60566
G1 X96.249 Y108.312 E1.62539
G1 X95.82 Y107.903 E1.6451
G1 X95.466 Y107.463 E1.66389
G1 X95.098 Y106.941 E1.68513
G1 X94.79 Y106.435 E1.70483
G1 X94.552 Y105.891 E1.72458
G1 X94.39 Y105.321 E1.74429
G1 X94.306 Y104.734 E1.76401
G1 X94.294 Y104.426 E1.77427
G1 X94.246 Y94.039 E2.11974
G1 X94.283 Y93.448 E2.13944
G1 X94.345 Y93.089 E2.15155
G1 X94.417 Y92.756 E2.16289
G1 X94.581 Y92.186 E2.18261
G1 X94.821 Y91.644 E2.20233
G1 X95.303 Y90.911 E2.23151
G1 X95.719 Y90.399 E2.25345
G1 X96.123 Y89.965 E2.27317
G0 F3600 X96.416 Y90.239
G1 F1200 X96.857 Y89.885 E2.29198
G1 X97.576 Y89.49 E2.31926
G1 X97.959 Y89.328 E2.33309
G1 X98.494 Y89.145 E2.3519
G1 X99.049 Y89.039 E2.37069
G1 X99.538 Y89.012 E2.38698
G1 X107.091 Y89.052 E2.6382
G1 X107.655 Y89.095 E2.65701
G1 X108.207 Y89.217 E2.67582
G1 X108.736 Y89.416 E2.69461
G1 X109.275 Y89.715 E2.71512
G1 X109.729 Y90.015 E2.73321
G1 X110.178 Y90.359 E2.75203
G1 X110.573 Y90.763 E2.77082
G1 X110.884 Y91.181 E2.78815
G1 X111.063 Y91.458 E2.79912
G1 X111.335 Y91.953 E2.8179
G1 X111.606 Y92.752 E2.84597
G1 X111.706 Y93.197 E2.86114
G1 X111.79 Y93.756 E2.87994
G1 X111.803 Y94.074 E2.89052
G1 X111.802 Y104.079 E3.22329
G1 X111.749 Y104.727 E3.24491
G1 X111.695 Y105.056 E3.256
G1 X111.564 Y105.606 E3.27481
G1 X111.357 Y106.132 E3.29361
G1 X111.196 Y106.435 E3.30502
G1 X110.955 Y106.845 E3.32084
G1 X110.635 Y107.311 E3.33964
G1 X110.252 Y107.727 E3.35845
G1 X109.686 Y108.173 E3.38242
G1 X109.261 Y108.449 E3.39927
G1 X108.766 Y108.722 E3.41807
G1 X108.238 Y108.923 E3.43686
G1 X107.879 Y109.014 E3.44918
G1 X107.579 Y109.075 E3.45936
G1 X107.018 Y109.148 E3.47818
G1 X106.715 Y109.154 E3.48826
G1 X103.279 Y109.096 E3.60256
G1 X99.773 Y109.152 E3.71918
G1 X99.208 Y109.122 E3.738
G1 X98.863 Y109.063 E3.74964
G1 X98.424 Y108.968 E3.76458
G1 X97.881 Y108.809 E3.7834
G1 X97.15 Y108.45 E3.81049
G1 X96.942 Y108.32 E3.81864
G1 X96.485 Y107.987 E3.83745
G1 X96.079 Y107.593 E3.85627
G1 X95.793 Y107.233 E3.87156
G1 X95.425 Y106.711 E3.8928
G1 X95.132 Y106.227 E3.91162
G1 X94.911 Y105.707 E3.93041
G1 X94.766 Y105.16 E3.94924
G1 X94.694 Y104.424 E3.97383
G1 X94.646 Y94.037 E4.31931
G1 X94.683 Y93.473 E4.33811
G1 X94.736 Y93.174 E4.34821
G1 X94.808 Y92.841 E4.35954
G1 X94.967 Y92.298 E4.37836
G1 X95.2 Y91.783 E4.39716
G1 X95.614 Y91.164 E4.42193
G1 X96.03 Y90.652 E4.44387
G1 X96.416 Y90.239 E4.46267
G0 F3600 X96.708 Y90.514
G1 F1200 X97.13 Y90.183 E4.48051
G1 X97.732 Y89.858 E4.50326
G1 X98.115 Y89.696 E4.51709
G1 X98.623 Y89.525 E4.53492
G1 X99.151 Y89.431 E4.55276
G1 X99.536 Y89.412 E4.56558
G1 X107.089 Y89.452 E4.8168
G1 X107.624 Y89.495 E4.83465
G1 X108.146 Y89.617 E4.85248
G1 X108.644 Y89.814 E4.87029
G1 X109.055 Y90.049 E4.88604
G1 X109.509 Y90.349 E4.90414
G1 X109.933 Y90.677 E4.92197
G1 X110.304 Y91.064 E4.9398
G1 X110.548 Y91.398 E4.95355
G1 X110.727 Y91.675 E4.96452
G1 X110.983 Y92.146 E4.98235
G1 X111.215 Y92.84 E5.00669
G1 X111.315 Y93.285 E5.02186
G1 X111.403 Y94.074 E5.04827
G1 X111.402 Y104.079 E5.38103
G1 X111.354 Y104.662 E5.40049
G1 X111.3 Y104.991 E5.41158
G1 X111.174 Y105.512 E5.42941
G1 X110.852 Y106.232 E5.45564
G1 X110.611 Y106.642 E5.47146
G1 X110.305 Y107.083 E5.48931
G1 X109.938 Y107.474 E5.50715
G1 X109.468 Y107.837 E5.5269
G1 X109.043 Y108.113 E5.54375
G1 X108.572 Y108.371 E5.56162
G1 X108.069 Y108.556 E5.57944
G1 X107.799 Y108.622 E5.58869
G1 X107.499 Y108.683 E5.59887
G1 X106.721 Y108.754 E5.62485
G1 X103.309 Y108.696 E5.73835
G1 X99.766 Y108.753 E5.85621
G1 X99.231 Y108.721 E5.87403
G1 X98.948 Y108.672 E5.88359
G1 X98.509 Y108.577 E5.89853
G1 X97.994 Y108.424 E5.91639
G1 X97.362 Y108.111 E5.93985
G1 X97.154 Y107.981 E5.94801
G1 X96.722 Y107.663 E5.96585
G1 X96.341 Y107.285 E5.9837
G1 X96.12 Y107.002 E5.99564
G1 X95.752 Y106.48 E6.01689
G1 X95.476 Y106.02 E6.03473
G1 X95.272 Y105.524 E6.05257
G1 X95.144 Y105.003 E6.07041
G1 X95.094 Y104.423 E6.08977
G1 X95.046 Y94.036 E6.43525
G1 X95.127 Y93.258 E6.46127
G1 X95.199 Y92.925 E6.4726
G1 X95.351 Y92.411 E6.49043
G1 X95.578 Y91.925 E6.50827
G1 X95.924 Y91.416 E6.52874
G1 X96.34 Y90.904 E6.55068
G1 X96.708 Y90.514 E6.56851
G0 F3600 X96.999 Y90.79
G1 F1200 X97.401 Y90.484 E6.58532
G1 X97.887 Y90.227 E6.6036
G1 X98.27 Y90.065 E6.61743
G1 X98.75 Y89.905 E6.63426
G1 X99.249 Y89.823 E6.65108
G1 X99.534 Y89.812 E6.66057
G1 X107.087 Y89.852 E6.91178
G1 X107.591 Y89.895 E6.92861
G1 X108.081 Y90.016 E6.94539
G1 X108.547 Y90.213 E6.96222
G1 X108.834 Y90.382 E6.9733
G1 X109.288 Y90.682 E6.9914
G1 X109.687 Y90.993 E7.00822
G1 X110.031 Y91.363 E7.02503
G1 X110.212 Y91.615 E7.03535
G1 X110.391 Y91.892 E7.04632
G1 X110.631 Y92.337 E7.06313
G1 X110.825 Y92.927 E7.08379
G1 X110.925 Y93.372 E7.09896
G1 X111.003 Y94.074 E7.12245
G1 X111.002 Y104.079 E7.45522
G1 X110.96 Y104.597 E7.47251
G1 X110.906 Y104.926 E7.48359
G1 X110.785 Y105.417 E7.50041
G1 X110.507 Y106.03 E7.5228
G1 X110.266 Y106.44 E7.53862
G1 X109.976 Y106.854 E7.55543
G1 X109.624 Y107.217 E7.57225
G1 X109.25 Y107.502 E7.58789
G1 X108.825 Y107.778 E7.60474
G1 X108.38 Y108.019 E7.62157
G1 X107.72 Y108.23 E7.64462
G1 X107.42 Y108.291 E7.6548
G1 X106.728 Y108.355 E7.67792
G1 X103.279 Y108.297 E7.79265
G1 X99.76 Y108.353 E7.9097
G1 X99.032 Y108.281 E7.93404
G1 X98.593 Y108.186 E7.94898
G1 X98.109 Y108.04 E7.96579
G1 X97.574 Y107.772 E7.98569
G1 X97.366 Y107.642 E7.99385
G1 X96.96 Y107.341 E8.01066
G1 X96.606 Y106.979 E8.0275
G1 X96.447 Y106.772 E8.03618
G1 X96.079 Y106.25 E8.05742
G1 X95.821 Y105.815 E8.07425
G1 X95.635 Y105.345 E8.09106
G1 X95.525 Y104.851 E8.10789
G1 X95.494 Y104.421 E8.12223
G1 X95.446 Y94.034 E8.46771
G1 X95.518 Y93.343 E8.49081
G1 X95.59 Y93.01 E8.50214
G1 X95.736 Y92.526 E8.51896
G1 X95.956 Y92.07 E8.5358
G1 X96.234 Y91.668 E8.55205
G1 X96.65 Y91.156 E8.574
G1 X96.999 Y90.79 E8.59082
G1 F1500 E2.09082
G0 F3600 X98.738 Y92.629
G0 X99.424 Y93.713
G0 X99.837 Y93.705
G0 X99.868 Y93.61
;TYPE:WALL-INNER
G1 F1500 E8.59082
G1 F1200 X99.984 Y93.665 E8.59509
G1 X100.076 Y93.74 E8.59903
G1 X100.148 Y93.84 E8.60313
G1 X100.193 Y93.954 E8.60721
G1 X100.209 Y94.075 E8.61127
G1 X100.193 Y94.199 E8.61543
G1 X100.15 Y94.308 E8.61932
G1 X100.076 Y94.409 E8.62349
G1 X99.985 Y94.486 E8.62745
G1 X99.873 Y94.539 E8.63157
G1 X99.751 Y94.562 E8.6357
G1 X99.629 Y94.554 E8.63977
G1 X99.512 Y94.517 E8.64385
G1 X99.413 Y94.452 E8.64779
G1 X99.324 Y94.36 E8.65205
G1 X99.268 Y94.256 E8.65598
G1 X99.237 Y94.138 E8.66003
G1 X99.238 Y94.01 E8.66429
G1 X99.266 Y93.895 E8.66823
G1 X99.324 Y93.792 E8.67216
G1 X99.412 Y93.698 E8.67644
G1 X99.512 Y93.635 E8.68037
G1 X99.631 Y93.597 E8.68453
G1 X99.754 Y93.588 E8.68863
G1 X99.868 Y93.61 E8.69249
G0 F3600 X99.994 Y93.227
;TYPE:WALL-OUTER
G1 F1200 X100.199 Y93.324 E8.70004
G1 X100.37 Y93.464 E8.70739
G1 X100.501 Y93.645 E8.71482
G1 X100.584 Y93.855 E8.72233
G1 X100.612 Y94.075 E8.7297
G1 X100.584 Y94.296 E8.73711
G1 X100.503 Y94.503 E8.74451
G1 X100.368 Y94.686 E8.75207
G1 X100.2 Y94.827 E8.75937
G1 X99.999 Y94.922 E8.76676
G1 X99.777 Y94.964 E8.77427
G1 X99.552 Y94.95 E8.78177
G1 X99.341 Y94.882 E8.78915
G1 X99.155 Y94.762 E8.79651
G1 X99 Y94.6 E8.80396
G1 X98.893 Y94.403 E8.81142
G1 X98.837 Y94.187 E8.81884
G1 X98.838 Y93.962 E8.82633
G1 X98.891 Y93.747 E8.83369
G1 X99 Y93.552 E8.84112
G1 X99.154 Y93.388 E8.8486
G1 X99.342 Y93.269 E8.856
G1 X99.553 Y93.201 E8.86338
G1 X99.781 Y93.186 E8.87098
G1 X99.994 Y93.227 E8.87819
G0 F3600 X100.175 Y93.312
G0 X99.788 Y94.008
;TYPE:SKIN
G1 F1200 X99.813 Y94.056 E8.87999
G1 X99.813 Y94.097 E8.88136
G1 X99.788 Y94.142 E8.88307
G1 X99.753 Y94.164 E8.88444
G1 X99.701 Y94.167 E8.88618
G1 X99.663 Y94.149 E8.88757
G1 X99.631 Y94.107 E8.88933
G1 X99.628 Y94.056 E8.89103
G1 X99.638 Y94.028 E8.89202
G1 X99.676 Y93.993 E8.89374
G1 X99.733 Y93.981 E8.89567
G1 X99.788 Y94.008 E8.89771
G0 F3600 X99.78 Y94.017
G1 F1500 E2.39771
G0 F3600 X99.75 Y94.543
G0 X99.676 Y95.825
G0 X99.674 Y97.326
G0 X99.753 Y98.607
G0 X99.837 Y98.705
G0 X99.868 Y98.61
;TYPE:WALL-INNER
G1 F1500 E8.89771
G1 F1200 X99.984 Y98.665 E8.90198
G1 X100.076 Y98.74 E8.90593
G1 X100.148 Y98.84 E8.91003
G1 X100.193 Y98.954 E8.9141
G1 X100.209 Y99.075 E8.91816
G1 X100.193 Y99.199 E8.92232
G1 X100.15 Y99.308 E8.92622
G1 X100.076 Y99.409 E8.93038
G1 X99.985 Y99.486 E8.93435
G1 X99.873 Y99.539 E8.93847
G1 X99.751 Y99.562 E8.9426
G1 X99.629 Y99.554 E8.94667
G1 X99.512 Y99.517 E8.95075
G1 X99.413 Y99.452 E8.95469
G1 X99.324 Y99.36 E8.95894
G1 X99.268 Y99.256 E8.96287
G1 X99.237 Y99.138 E8.96693
G1 X99.238 Y99.01 E8.97119
G1 X99.266 Y98.895 E8.97512
G1 X99.324 Y98.792 E8.97906
G1 X99.412 Y98.698 E8.98334
G1 X99.512 Y98.635 E8.98727
G1 X99.631 Y98.597 E8.99142
G1 X99.754 Y98.588 E8.99553
G1 X99.868 Y98.61 E8.99939
G0 F3600 X99.994 Y98.227
;TYPE:WALL-OUTER
G1 F1200 X100.199 Y98.324 E9.00693
G1 X100.37 Y98.464 E9.01428
G1 X100.501 Y98.645 E9.02171
G1 X100.584 Y98.855 E9.02922
G1 X100.612 Y99.075 E9.0366
G1 X100.584 Y99.296 E9.04401
G1 X100.503 Y99.503 E9.0514
G1 X100.368 Y99.686 E9.05897
G1 X100.2 Y99.827 E9.06626
G1 X99.999 Y99.922 E9.07365
G1 X99.777 Y99.964 E9.08117
G1 X99.552 Y99.95 E9.08867
G1 X99.341 Y99.882 E9.09604
G1 X99.155 Y99.762 E9.1034
G1 X99 Y99.6 E9.11086
G1 X98.893 Y99.403 E9.11832
G1 X98.837 Y99.187 E9.12574
G1 X98.838 Y98.962 E9.13322
G1 X98.891 Y98.747 E9.14059
G1 X99 Y98.552 E9.14802
G1 X99.154 Y98.388 E9.1555
G1 X99.342 Y98.269 E9.1629
G1 X99.553 Y98.201 E9.17027
G1 X99.781 Y98.186 E9.17787
G1 X99.994 Y98.227 E9.18509
G0 F3600 X100.175 Y98.312
G0 X99.788 Y99.008
;TYPE:SKIN
G1 F1200 X99.813 Y99.056 E9.18689
G1 X99.813 Y99.097 E9.18825
G1 X99.788 Y99.142 E9.18996
G1 X99.753 Y99.164 E9.19134
G1 X99.701 Y99.167 E9.19307
G1 X99.663 Y99.149 E9.19447
G1 X99.631 Y99.107 E9.19623
G1 X99.628 Y99.056 E9.19792
G1 X99.638 Y99.028 E9.19891
G1 X99.676 Y98.993 E9.20063
G1 X99.733 Y98.981 E9.20257
G1 X99.788 Y99.008 E9.20461
G0 F3600 X99.78 Y99.017
G1 F1500 E2.70461
G0 F3600 X99.75 Y99.543
G0 X99.676 Y100.825
G0 X99.674 Y102.326
G0 X99.753 Y103.607
G0 X99.837 Y103.705
G0 X99.868 Y103.61
;TYPE:WALL-INNER
G1 F1500 E9.20461
G1 F1200 X99.984 Y103.665 E9.20888
G1 X100.076 Y103.74 E9.21282
G1 X100.148 Y103.84 E9.21692
G1 X100.193 Y103.954 E9.221
G1 X100.209 Y104.075 E9.22506
G1 X100.193 Y104.199 E9.22922
G1 X100.15 Y104.308 E9.23311
G1 X100.076 Y104.409 E9.23728
G1 X99.985 Y104.486 E9.24124
G1 X99.873 Y104.539 E9.24537
G1 X99.751 Y104.562 E9.24949
G1 X99.629 Y104.554 E9.25356
G1 X99.512 Y104.517 E9.25764
G1 X99.413 Y104.452 E9.26158
G1 X99.324 Y104.36 E9.26584
G1 X99.268 Y104.256 E9.26977
G1 X99.237 Y104.138 E9.27383
G1 X99.238 Y104.01 E9.27808
G1 X99.266 Y103.895 E9.28202
G1 X99.324 Y103.792 E9.28595
G1 X99.412 Y103.698 E9.29023
G1 X99.512 Y103.635 E9.29416
G1 X99.631 Y103.597 E9.29832
G1 X99.754 Y103.588 E9.30242
G1 X99.868 Y103.61 E9.30628
G0 F3600 X99.994 Y103.227
;TYPE:WALL-OUTER
G1 F1200 X100.199 Y103.324 E9.31383
G1 X100.37 Y103.464 E9.32118
G1 X100.501 Y103.645 E9.32861
G1 X100.584 Y103.855 E9.33612
G1 X100.612 Y104.075 E9.34349
G1 X100.584 Y104.296 E9.3509
G1 X100.503 Y104.503 E9.3583
G1 X100.368 Y104.686 E9.36586
G1 X100.2 Y104.827 E9.37316
G1 X99.999 Y104.922 E9.38055
G1 X99.777 Y104.964 E9.38806
G1 X99.552 Y104.95 E9.39556
G1 X99.341 Y104.882 E9.40294
G1 X99.155 Y104.762 E9.4103
G1 X99 Y104.6 E9.41776
G1 X98.893 Y104.403 E9.42521
G1 X98.837 Y104.187 E9.43263
G1 X98.838 Y103.962 E9.44012
G1 X98.891 Y103.747 E9.44748
G1 X99 Y103.552 E9.45491
G1 X99.154 Y103.388 E9.46239
G1 X99.342 Y103.269 E9.46979
G1 X99.553 Y103.201 E9.47717
G1 X99.781 Y103.186 E9.48477
G1 X99.994 Y103.227 E9.49198
G0 F3600 X100.175 Y103.312
G0 X99.788 Y104.008
;TYPE:SKIN
G1 F1200 X99.813 Y104.056 E9.49378
G1 X99.813 Y104.097 E9.49515
G1 X99.788 Y104.142 E9.49686
G1 X99.753 Y104.164 E9.49823
G1 X99.701 Y104.167 E9.49997
G1 X99.663 Y104.149 E9.50136
G1 X99.631 Y104.107 E9.50312
G1 X99.628 Y104.056 E9.50482
G1 X99.638 Y104.028 E9.50581
G1 X99.676 Y103.993 E9.50753
G1 X99.733 Y103.981 E9.50946
G1 X99.788 Y104.008 E9.5115
G0 F3600 X99.78 Y104.017
G1 F1500 E3.0115
G0 F3600 X100.189 Y104.075
G0 X101.462 Y103.915
G0 X104.972 Y104.01
G0 X106.257 Y104.012
G0 X106.837 Y103.705
G0 X106.868 Y103.61
;TYPE:WALL-INNER
G1 F1500 E9.5115
G1 F1200 X106.984 Y103.665 E9.51577
G1 X107.076 Y103.74 E9.51972
G1 X107.148 Y103.84 E9.52382
G1 X107.193 Y103.954 E9.52789
G1 X107.209 Y104.075 E9.53195
G1 X107.193 Y104.199 E9.53611
G1 X107.151 Y104.305 E9.5399
G1 X107.075 Y104.409 E9.54419
G1 X106.978 Y104.489 E9.54837
G1 X106.875 Y104.539 E9.55218
G1 X106.752 Y104.562 E9.55634
G1 X106.629 Y104.554 E9.56044
G1 X106.515 Y104.517 E9.56443
G1 X106.41 Y104.45 E9.56857
G1 X106.325 Y104.36 E9.57269
G1 X106.268 Y104.256 E9.57663
G1 X106.237 Y104.138 E9.58069
G1 X106.238 Y104.01 E9.58495
G1 X106.266 Y103.895 E9.58888
G1 X106.324 Y103.792 E9.59282
G1 X106.412 Y103.698 E9.5971
G1 X106.512 Y103.635 E9.60103
G1 X106.631 Y103.597 E9.60518
G1 X106.754 Y103.588 E9.60929
G1 X106.868 Y103.61 E9.61315
G0 F3600 X106.994 Y103.227
;TYPE:WALL-OUTER
G1 F1200 X107.199 Y103.324 E9.62069
G1 X107.37 Y103.464 E9.62804
G1 X107.501 Y103.645 E9.63547
G1 X107.584 Y103.855 E9.64298
G1 X107.612 Y104.075 E9.65036
G1 X107.584 Y104.296 E9.65777
G1 X107.503 Y104.503 E9.66516
G1 X107.37 Y104.683 E9.67261
G1 X107.195 Y104.829 E9.68019
G1 X107 Y104.922 E9.68737
G1 X106.777 Y104.964 E9.69492
G1 X106.553 Y104.95 E9.70238
G1 X106.342 Y104.881 E9.70977
G1 X106.153 Y104.761 E9.71721
G1 X106 Y104.6 E9.7246
G1 X105.893 Y104.403 E9.73206
G1 X105.837 Y104.187 E9.73948
G1 X105.838 Y103.962 E9.74696
G1 X105.891 Y103.747 E9.75433
G1 X106 Y103.552 E9.76176
G1 X106.154 Y103.388 E9.76924
G1 X106.342 Y103.269 E9.77664
G1 X106.553 Y103.201 E9.78401
G1 X106.781 Y103.186 E9.79161
G1 X106.994 Y103.227 E9.79883
G0 F3600 X107.175 Y103.312
G0 X106.788 Y104.008
;TYPE:SKIN
G1 F1200 X106.813 Y104.056 E9.80063
G1 X106.813 Y104.096 E9.80196
G1 X106.79 Y104.14 E9.80361
